!!!COM: Franz Schubert
!!!CNT: Deutsch
!!!TXO: Deutsch
!!!OTL: "Die abgeblu2hte Linde"
!!!LYR: Ludwig Graf von Szechenyi
!!!OPS: Op. 7
!!!ONM: No. 1
!!!ENC: Ben Fuhrman
!!!YOR: Schubert Lieder - Dietrich Fischer-Dieskau, and Elmar Budde, eds.
!!!YOR: New York: C. F. Peters, Vol. 2
!!!ODT: 1817/
!!NB: Only vocal melody encoded.
!!NB: First instance of melodic material only encoded.
!!NB: Original Key: C Major
**kern
*clef G2
*k[b-e-]
*M4/4
!!created: 08/09/06 10:00
!!proofed and posted: 08/09/06 10:00
!!edit time: 30 minutes
=7
4r
{8g
8g
8cc#
8g
8f#
8g
=8
4a}
4r
8r
{8a
8a
8b
=9
4.cc
8cc#
[4dd
16dd]
16ccn
16b
16a
=10
4b}
4r
2r
!! rest to measure 13
=13
{8b
8g
8g
8a-
qcc
8.b
16b
4b
=14
4.ee
8b
8.dd-
16dd-
8cc
8b
=15
4f}
4r
2r
!! rest to measure 18
=18
*M2/2
{2dd
2b
=19
[2f
8f]
8g
8a
8b
=20
8b
8a
8g
8a
2b}
!! rest to measure 22
=22
{4b
4a
4.dd
8cc
=23
8cc
8b
8b
8a
2g}
!! rest to measure 25
=25
{2b
4b
4b
=26
4.cc-
8b
2a-
=27
4.dd-
8cc-
8b
8cc-
8ccn
8dd-
=28
8g-
8b
8a-
8f
4g-}
4r
!! rest to measure 31
=31
{2dd
2b
=32
[2f
8f]
8g
8a
8b
=33
8b
8a
8g
8a
2b}
!! rest to measure 35
=35
{4b
4a
4.dd
8cc
=36
8cc
8b
8b
8a
2g}
!! rest to measure 38
=38
{4.b
8b
4.e
8dd-
=39
8dd-
8cc-
8b
8cc-
2a-
=40
2dd-
4dd-
4dd-
=41
2dd-
2b--
=42
2.a
4a
=43
2a}
{4.b
8b
=44
2.b
4g-
=45
[2f
8f]
8a-
8g-
8f
=46
2e}
2r
=47
{4.g-
8g-
4.g-
8g-
=48
2g-
4r
4g-
=49
2f
4.f
8f
=50
[2f
8f]
8en
8d
8en
=52
2f}
2r
=53
{4.a-
8a-
4.a-
8a-
=54
2a-
4r
4a-
=55
2g
4.g
8g
=56
2g}
4r
8r
{8g
=57
[2g
8g]
8f#
8en
8f#
=58
2g}
2r
=59
{2.g
8a
8bn
=60
4cc
4a
4en
4f#
=61
2g}
{8a
8g
8f#
8g
=62
2a
2bn
=63
2cc
(4een
4dd)
=64
2bn}
{4.dd
8cc
=65
4.bn
8bn
4.bn
8bn
=66
2g#
8g#
8a
8bn
8cc
=67
4bn
4dd
4f#
8bn
8a
=68
2g}
2r
!! rest to measure 71
=71
2r
{[2b
=72
1b_
=73
2b]
2b
=74
2.dd
4b}
=75
{2.ee-
8dd
8cc
=76
4b
4b
8a
8cc
8b
8g
=77
2f}
2r
=78
{2.dd
8cc
8dd
=79
[2ff
8ff]
8ee
8dd
8cc
=80
(4.b
8a
8cc
8b)
8a
8g
=81
2f}
2r
=82
{2.dd
4cc
=83
2bn
(4cc
4ee)
=84
[2an
8an]
8ff
8ee
8cc
=85
2b-}
2r
=86
{2.a
4a
=87
(4cc
2b)
8cc
8dd
=88
2.ee
8dd
8cc
=89
2b}
2r
=90
{2.f
4f
=91
qg
2.f
4f
=92
2.f
8g
8a
=93
2b}
2r
==
*-
